X:1
T:Credit Centurio
T:Daniel Friderici
T:Source : Bicinia sacra---Rostock---J.Richelius---1642. Editor : André Vierendeels ( 30/06/17).
T:Notes : Original clefs : G2, Editorial accidentals above the staff m 15 in S 2 : one half note too many in original print 
T:Credit Centurio
T:©
T:©
C:Daniel Friderici
Z:©
%%score [ 1 2 ]
L:1/8
Q:1/4=120
M:2/2
K:C
V:1 treble nm="Soprano 1" snm="S 1"
V:2 treble nm="Soprano 2" snm="S 2"
V:1
 c4 B2 B2 | A3 A G4 | c4 B2 B2 | A3 A G2 G2 | cdec d2 g2 | efge f2 c2 | cdec d2 e2 | fgaf g2 e2 | %8
w: Cre- dit Cen-|tu- ri- o,|cre- dit Cen-|tu- ri- o, gra-|tis, _ _ _ _ gra-|tis, _ _ _ _ gra-|tis, _ _ _ _ gra-|tis, _ _ _ _ ser-|
 a4 g2 g2 | f4 e2 d2 | e2 AB c2 Bc | d2 e2 d4 |[M:2/4] c4 :: z2 c2 |[M:2/2] d4 B3 A | G2 B2 c4 | %16
w: va- tur a-|lu mnus, a-|lu- * * * * *||mnus:-|Res|est gra- tui-|ta, res est|
 d4 e3 d | cdef g2 e2 | d2 G2 cBcd | edef g2 f2- | ff e2 d2 c2- | c2 B2 c2 d2- | dd g2 f2 e2 | %23
w: gra- tu- *|* * * * * i-|ta, ple- na, _ _ _|_ _ _ _ _ _|* sa- lu- te Fi-|* * des, ple-|* na sa- lu- te|
 d4 !fermata!c4 :| %24
w: Fi- des.|
V:2
 z8 | c4 B2 B2 | A3 A G4 | c4 B2 B2 | A3 A G2 G2 | cdec d2 g2 | efge f2 c2 | defd e2 g2 | %8
w: |Cre- dit Cen-|tu- ri- o,|cre- dit Cen-|tu- ri- o gra-|tis, _ _ _ _ gra-|tis, _ _ _ _ gra-|tis, _ _ _ _ ser-|
 f4 e2 e2 | d4 g2 G2 | c4 A2 d2 | BG c3 B/A/ B2 |[M:2/4] c4 :: z2 e2 |[M:2/2] G4 d3 c | B2 G2 A4 | %16
w: va- tur a-|lu- mnus, a-|lu- * *||mnus:|Res|est gra- tui-|ta, res est|
 B4 cdef | g2 g2 e2 c2 | d2 d2 edef | g4 z2 a2- | aa g2 f2 e2 | d4 e2 f2- | ff e2 d2 c2- | %23
w: gra- tu- * * *|* i- ta, ple-|na, ple- na, _ _ _|_ ple-|na sa- lu- te Fi-|* des, ple-|* na salu- te Fi-|
 c2 B2 !fermata!c4 :| %24
w: * * des.|

